X: 1
T:THE THISTLE OF SCOTLAND
M:C
L:1/8
Q:80
C:Traditional
S:March
K:HP
[| {g}A3/2B/2|
{Gdc}d2{g}df{Gdc}d2{g}dB|
{g}A2{GdGe}A{d}B{gAGAG}A2{Gdc}d3/2e/2|  !
{gfg}f2{g}ed{ag}a2df|
{g}e2{GdG}ef{gef}e2{g}A3/2B/2|
{Gdc}d2{g}df{Gdc}d2{g}dB|  !
{g}A2{GdGe}A{d}B{gAGAG}A2{Gdc}d3/2e/2|
{g}fafa{AGAG}A2{g}f3/2e/2|
{Gdc}d2{g}d3/2e/2{Gdc}d2|] [|  !
{g}d3/2e/2|
{g}f2{e}fa{fg}f2{g}ed|
{g}B2{GdGe}Bd{e}A2{Gdc}d3/2e/2|  !
{gfg}f2{g}ed{ag}a2df|
{g}e2{GdG}ef{gef}e2{g}A3/2B/2|
{Gdc}d3/2e/2{g}fa{fg}f2{g}ed|  !
{g}B3/2d/2{g}B/2d3/2{g}A2{Gdc}d3/2e/2|
{g}fafa{AGAG}A2{g}f3/2e/2|
{Gdc}d2{g}d3/2e/2{Gdc}d2|]  !
